X: 28661
T: Musical Priest, The
R: reel
M: 4/4
K: Bminor
BA|:FBBA B2AB|cBAc ecBA|FBBA B2AB|1 cBAc B2BA:|2 cBAc B2Bc||
|:d2dc dfed|c/B/A eA fAec|dcBc defg|1 afec dBBc:|2 afec dBB2||
bBdB bBdB|cBAB ceeB|bBdB bBdB|cBAB cBB2|
bBdB bBdB|cBAB ceec|d2dc defg|afec dBBA||

